X: 4679
T: Boyne Hunt, The
R: reel
M: 4/4
K: Amajor
E2CE A,ECE|A,ECE FB,B,2|E2CE A,ECE|EFAB cAAF:|
ceec efec|d3e fdBd|ceec efec|BcAB cAA2|
ceec efec|d3e fdBd|c2cB ABAF|EFAB cAAF||
eAAe fA e2|AAae cB B2|eAAe fA eA|ecBe cAA2|
cAeA fAeA|aece fB B2|fecA BFAF|EFAB cAAF:|

